images/tashkentskiye-sadi.svg

<svg width="181" height="73" viewBox="0 0 181 73" fill="none" xmlns="http://www.w3.org/2000/svg">
<path fill-rule="evenodd" clip-rule="evenodd" d="M176.277 10.5711L176.129 10.4221V8.22846H175.372L175.226 8.07973V7.91414L175.372 7.76768H177.376L177.524 7.91414V8.07973L177.376 8.22846H176.62V10.4221L176.472 10.5711H176.277Z" fill="#DE0D17"/>
<path fill-rule="evenodd" clip-rule="evenodd" d="M178.673 8.55621V10.4221L178.528 10.5711H178.331L178.183 10.4221V7.91414L178.331 7.76768H178.56L178.75 7.86757L179.63 9.07692L180.471 7.86757L180.657 7.76768H180.854L181 7.91414V10.4221L180.854 10.5711H180.662L180.516 10.4221V8.54304L179.786 9.57389H179.408L178.673 8.55621Z" fill="#DE0D17"/>
<path fill-rule="evenodd" clip-rule="evenodd" d="M17.7396 7.54709C17.7396 7.25612 17.5958 6.95623 17.3106 6.65017C21.9115 6.65017 21.7233 6.76705 24.0772 6.76705C28.9216 6.76705 30.383 6.3592 30.383 1.7575C30.383 0.0824746 28.981 0 28.7251 0C28.5092 0 28.2047 0.0614012 28.2047 0.189138C28.2047 0.295195 28.505 0.460815 28.505 0.773674C28.505 1.88271 25.2929 3.1052 15.511 3.1052C7.11986 3.1052 0 1.8557 0 10.1377C0 12.0893 2.12137 12.523 2.65002 12.523C2.85493 12.523 3.19964 12.4844 3.19964 12.3146C3.19964 12.0827 2.55464 11.7934 2.55464 10.9928C2.55464 8.5377 3.86384 7.17957 13.7475 6.72048C10.9814 11.271 8.21142 24.8822 8.21142 28.0234C8.21142 33.8706 11.529 34.7205 13.3243 34.7205C13.7728 34.7205 13.9969 34.6417 13.9969 34.4801C13.9969 34.1507 13.06 31.7426 13.06 28.5632C13.06 19.3496 17.7396 8.15091 17.7396 7.54709Z" fill="#DE0D17"/>
<path fill-rule="evenodd" clip-rule="evenodd" d="M78.0741 12.8525C78.408 12.8525 78.5752 12.9972 78.5752 13.2863C78.5752 14.3466 76.5983 16.5596 73.8427 17.3904C74.6082 15.7879 76.3107 12.8525 78.0741 12.8525ZM152.127 31.5437C151.861 31.5437 151.903 32.2214 151.355 32.2214C148.103 32.2214 142 23.6393 140.131 20.028C140.539 19.7539 147.439 14.8636 147.439 13.4285C147.439 11.1971 145.305 10.7252 144.72 10.7252C144.506 10.7252 143.956 10.8043 143.956 11.0884C143.956 11.3862 144.358 11.4457 144.358 11.9301C144.358 13.1802 139.903 16.8614 137.604 18.4742C139.19 12.7424 140.797 12.7296 140.797 12.1452C140.797 11.1649 138.249 10.5704 137.761 10.5704C135.413 10.5704 133.959 14.0666 133.248 17.9327C132.233 18.9954 130.203 23.5904 126.649 23.5904C126.133 23.5904 124.62 23.5242 124.62 20.895C124.62 17.9218 126.976 12.8525 129.188 12.8525C129.763 12.8525 129.953 13.1056 129.953 13.5224C129.953 14.3533 128.769 16.2191 127.283 16.2191C127.014 16.2191 126.778 16.3958 126.778 17.0247C126.778 17.9024 127.452 19.2334 128.623 19.2334C130.315 19.2334 131.834 16.2004 131.834 14.4829C131.834 11.8923 130.197 10.7252 128.376 10.7252C125.185 10.7252 121.474 14.8595 120.778 20.0153C119.615 21.6753 118.205 23.6627 117.162 23.6627C116.591 23.6627 116.314 23.2719 116.314 22.268C116.314 19.7749 118.433 14.8931 119.843 13.278L120.015 12.8846C120.015 11.9452 117.171 10.7613 116.67 10.7613C114.043 10.7613 111.241 14.7571 109.122 19.6219C109.649 15.8517 111.106 13.8028 111.557 13.278L111.747 12.84C111.747 11.9688 109.482 10.7613 108.875 10.7613C105.847 10.7613 101.485 18.4827 100.977 20.2599C101.512 16.9162 102.971 14.3979 103.94 13.278L104.111 12.8846C104.111 11.9477 101.307 10.7613 100.8 10.7613C99.4588 10.7613 97.389 15.7197 96.9149 20.5082C96.7415 20.7552 96.5533 21.0185 96.3376 21.3161C94.6844 23.573 94.0118 24.1513 93.3753 24.1513C93.0983 24.1513 92.5614 24.1001 92.5614 22.7951C92.5614 20.1919 94.642 15.5775 95.9126 14.0833L96.0632 13.7328C96.0632 12.8466 93.3795 11.6391 92.8802 11.6391C91.8041 11.6391 90.229 14.857 89.2795 18.4682C87.7972 18.4213 86.2933 18.3296 85.1981 18.2489C85.9786 15.8391 87.1098 14.1961 87.6025 13.6242L87.7737 13.2308C87.7737 12.2873 84.9273 11.1078 84.4284 11.1078C83.3159 11.1078 81.7833 14.4895 80.9943 18.2472C79.9263 19.6797 77.9813 23.4863 74.655 23.4863C73.0331 23.4863 72.7201 22.1343 72.8909 20.721C75.3652 20.721 80.5395 17.3885 80.5395 13.7286C80.5395 12.8718 80.2206 10.7252 77.2282 10.7252C73.9783 10.7252 68.3767 15.4776 68.3767 21.7137C68.3767 23.1862 69.1549 28.1662 73.1302 28.1662C76.1014 28.1662 78.7971 25.637 80.5078 23.0952C80.6499 25.2653 82.0493 27.8006 84.676 27.8006C84.8408 27.8006 84.923 27.6946 84.923 27.4818C84.3229 25.1292 84.2931 22.9741 84.5532 21.089C86.063 21.1294 87.5155 21.21 88.6914 21.2908C88.5519 22.2193 88.4673 23.129 88.4673 23.9688C88.4673 28.2362 90.4591 28.5445 91.2947 28.5445C92.4954 28.5445 94.2146 28.2 96.3376 25.7456C96.6552 25.3739 96.9489 24.9696 97.2325 24.549C97.8349 26.1281 99.0932 27.4903 101.013 27.4903L101.258 27.2077V27.1715C101.258 23.9537 103.576 18.9845 106.099 15.1564L106.135 15.121C105.667 16.521 104.855 19.4244 104.855 22.421C104.855 24.4508 106.139 27.4903 109.089 27.4903C109.247 27.4903 109.326 27.3649 109.326 27.112L109.301 26.8168C109.301 24.9805 110.095 21.4011 113.601 15.6517C113.472 16.0257 112.132 19.8793 112.132 23.4518C112.132 27.2372 113.54 28.2344 115.048 28.2344C115.13 28.2344 117.579 28.5044 120.231 25.3286C120.508 25.0058 120.761 24.6491 121.015 24.2918C121.561 26.2642 122.775 28.1639 124.957 28.1639C127.843 28.1639 130.933 25.2544 132.747 22.4788C132.597 26.4493 135.701 28.1284 136.676 28.1284C136.891 28.1284 137.116 27.7645 137.116 27.5879C137.116 27.5114 135.94 25.2865 137.291 19.6882C140.298 26.3469 144.35 34.8079 148.674 34.8079C151.323 34.8079 152.592 32.9077 152.592 32.1836C152.592 31.7305 152.193 31.5437 152.127 31.5437Z" fill="#DE0D17"/>
<path fill-rule="evenodd" clip-rule="evenodd" d="M171.775 12.8525C172.11 12.8525 172.277 12.9972 172.277 13.2863C172.277 14.3466 170.3 16.5596 167.544 17.3904C168.31 15.7879 170.012 12.8525 171.775 12.8525ZM175.303 17.7073C174.457 17.7073 172.455 23.4863 168.356 23.4863C167.836 23.4863 166.555 23.4157 166.555 21.3203C166.555 21.1294 166.567 20.9295 166.593 20.721C169.165 20.721 173.653 17.4391 174.138 14.7318C174.207 14.3768 174.242 14.0431 174.242 13.7286C174.242 12.8718 173.922 10.7252 170.93 10.7252C168.293 10.7252 163.223 14.2298 162.241 19.9769C161.097 21.6289 159.71 23.5904 158.657 23.5904C158.096 23.5904 157.811 23.2181 157.811 22.2023C157.811 19.5798 159.966 14.7975 161.302 13.2695L161.473 12.8784C161.473 11.956 158.688 10.7613 158.164 10.7613C157.007 10.7613 155.318 14.566 154.498 18.2406C153.941 19.5943 152.525 22.3511 151.076 22.3511C150.539 22.3511 150.175 22.0073 150.175 20.9227C150.175 18.5786 152.233 14.5424 153.299 13.278L153.465 12.8508C153.465 11.9602 151.298 10.7613 150.689 10.7613C149.071 10.7613 145.682 18.3067 145.682 22.8127C145.682 23.4712 145.844 27.4221 148.78 27.4221C150.213 27.4221 152.026 26.0004 154.002 22.7766C154.06 26.7722 155.422 28.1639 156.578 28.1639C156.661 28.1639 159.061 28.447 161.725 25.2353C161.994 24.9207 162.239 24.5726 162.484 24.2262C163.036 26.0937 164.265 28.1662 166.832 28.1662C171.847 28.1662 176.1 20.9613 176.1 18.6489C176.1 17.9789 175.817 17.7073 175.303 17.7073Z" fill="#DE0D17"/>
<path fill-rule="evenodd" clip-rule="evenodd" d="M92.3054 53.8244C92.2737 53.8244 91.2163 53.9732 91.2163 52.0544C91.2163 49.5932 93.4371 44.8236 96.7484 44.8236C97.1943 44.8236 97.4185 44.9278 97.4185 45.1405C97.4185 45.9478 95.2683 47.6166 95.2683 48.2606C95.2683 48.5365 95.3461 48.7046 95.7268 48.9341C94.6358 51.3743 93.8998 53.8244 92.3054 53.8244ZM86.2771 68.9471C85.8053 68.9471 85.3001 68.7621 84.7588 68.3923L84.5347 67.9162C84.5347 67.0788 86.427 65.8799 90.1889 64.813C89.8292 65.61 88.438 68.9471 86.2771 68.9471ZM79.9989 47.9775C79.9989 48.3902 80.2651 48.5751 80.4575 48.6516C79.3624 51.1018 78.6688 53.3637 77.178 53.3637C77.0149 53.3637 76.1223 53.4317 76.1223 51.6972C76.1223 49.6336 78.0448 44.6814 81.4093 44.6814C81.6563 44.6814 82.0267 44.692 82.0267 45.0404C82.0267 45.7736 79.9989 47.4064 79.9989 47.9775ZM99.3239 59.4957C98.5477 59.4957 97.7018 59.5312 96.7843 59.6015L100.586 48.539C100.586 47.9503 99.5458 47.4612 98.9708 47.3039C99.8209 46.1369 99.8526 44.9169 99.8526 44.4325C99.8526 43.2316 99.155 41.7394 96.7484 41.7394C94.5257 41.7394 88.9476 44.4006 87.3974 50.0988C86.1584 51.8249 84.4225 54.6047 83.202 54.6047C80.8339 54.6047 85.1521 48.4559 85.1521 48.322C85.1521 47.7864 84.289 47.2636 83.5894 47.0912C84.4772 45.9652 84.4435 44.5324 84.4435 44.2903C84.4435 42.9811 83.5133 41.7394 81.4387 41.7394C80.2373 41.7394 75.8348 42.983 73.2044 47.746C72.4474 49.1167 72.0687 50.7596 72.0602 52.6725C71.3117 51.1465 69.7639 50.494 68.975 50.494C66.2704 50.494 68.2307 51.3169 68.2245 54.7873C68.2161 58.5473 64.5473 61.4338 61.5934 61.4338C59.8527 61.4338 58.0573 60.2793 58.0573 55.8886C58.0573 48.7643 63.4437 36.0544 67.7636 36.0544C68.8888 36.0544 69.7405 36.5414 69.7405 37.8799C69.7405 40.4115 68.0321 41.2997 70.7158 41.2997C73.3801 41.2997 73.7033 40.0946 73.7033 38.4729C73.7033 36.3943 72.1598 33.5379 67.9393 33.5379C62.4073 33.5379 53.4813 40.8574 53.4813 54.3095C53.4813 63.155 60.8933 64.0202 62.3671 64.0202C69.0008 64.0202 72.0328 58.6918 72.4366 55.3403C72.8574 56.8193 73.7225 58.3263 75.4799 58.3263C76.909 58.3263 78.5795 55.5975 78.8654 55.0999C78.7275 56.5537 78.9458 59.1762 81.1215 59.1762C83.4412 59.1762 85.6298 57.2767 87.169 55.0871C87.5773 57.1934 88.679 59.0004 90.542 59.0004C91.5382 59.0004 92.6333 57.6501 93.5041 56.556C93.1428 57.3145 92.6693 58.4177 91.9525 60.454C90.7596 60.7662 83.7776 62.5645 83.2781 68.1796C83.249 68.326 83.2088 68.5707 83.2088 68.8893C83.3483 71.2553 85.0358 73 87.7907 73C91.2948 73 93.0414 69.0298 95.1622 63.7503C96.9173 63.4929 98.3026 63.438 99.0871 63.438C102.993 63.438 103.983 64.5624 104.189 64.7769C104.45 65.0468 104.661 65.1762 104.813 65.1762C104.892 65.1762 105.114 65.119 105.114 64.6514C105.114 63.3254 103.231 59.4957 99.3239 59.4957Z" fill="#DE0D17"/>
<path fill-rule="evenodd" clip-rule="evenodd" d="M123.44 48.9564C122.592 48.9564 119.807 54.8034 118.01 54.8034C116.902 54.8034 120.583 48.3058 120.583 45.3284C120.583 43.4155 119.135 42.0038 118.079 42.0038C117.352 42.0038 114.309 47.1328 112.421 48.6992C112.542 47.6514 112.73 45.6236 110.657 45.6236C108.42 45.6236 107.198 47.5533 107.198 49.4451C107.198 50.6759 108.054 51.7598 109.429 51.9911C108.312 53.3473 106.828 54.9817 105.191 54.9817C102.943 54.9817 105.733 47.2606 107.729 44.9156L107.879 44.5633C107.879 43.677 105.196 42.4672 104.696 42.4672C103.068 42.4672 100.283 49.8342 100.283 54.7994C100.283 59.0606 102.271 59.3768 103.109 59.3768C107.35 59.3768 110.053 54.8691 110.158 54.8691C110.842 53.8593 111.336 52.9581 111.765 51.6597C113.406 50.5037 116.948 44.6608 116.98 44.6608L117.004 44.7078C117.004 45.4857 113.286 53.6829 113.286 55.9934C113.286 57.4899 114.081 59.3768 116.035 59.3768C120.002 59.2835 124.121 53.1112 124.121 49.915C124.121 48.9607 123.596 48.9564 123.44 48.9564Z" fill="#DE0D17"/>
<path fill-rule="evenodd" clip-rule="evenodd" d="M23.7985 16.9639C23.7985 17.3766 24.0671 17.5615 24.257 17.6357C23.151 20.1099 22.4642 22.3518 20.9776 22.3518C20.8127 22.3518 19.922 22.4181 19.922 20.6835C19.922 18.5838 21.8719 13.6678 25.2089 13.6678C25.4582 13.6678 25.8239 13.6806 25.8239 14.0291C25.8239 14.7581 23.7985 16.3945 23.7985 16.9639ZM58.0291 28.3199C58.2448 28.3199 58.469 27.9547 58.469 27.78C58.469 27.6992 57.2679 25.4485 58.6957 19.6695C59.0822 20.6432 59.2688 21.1022 60.0996 23.0899C62.0512 27.8631 63.54 29.1851 64.8234 29.1851C66.8346 29.1851 68.6172 25.8166 68.6172 25.0725C68.6172 24.7917 68.4901 24.6833 68.2809 24.6833C67.8752 24.6833 67.7373 25.3575 66.8705 25.3575C65.2082 25.3575 63.6265 22.3054 62.3598 19.5955C64.3116 18.1779 68.7927 14.7769 68.7927 13.6206C68.7927 11.3892 66.6588 10.9173 66.0733 10.9173C65.8599 10.9173 65.3101 10.9938 65.3101 11.2807C65.3101 11.5766 65.7117 11.6381 65.7117 12.1225C65.7117 13.3726 61.2565 17.0535 58.9577 18.6665C60.5436 12.932 62.1507 12.9218 62.1507 12.3375C62.1507 11.3573 59.6026 10.7603 59.1139 10.7603C56.6318 10.7603 55.1452 14.675 54.4853 18.8002C53.2842 20.3118 51.305 23.7694 49.9899 23.7694C48.8137 23.7694 49.1039 21.5909 49.6746 19.7057C51.1635 16.2523 52.0787 12.9875 52.0787 12.6748C52.0787 11.6742 50.1379 10.7603 48.5177 10.7603C47.2367 10.7603 45.0098 23.3126 42.3748 23.3126C39.8417 23.3126 42.6518 15.3107 44.426 13.2784L44.5998 12.8857C44.5998 11.9737 41.9013 10.7603 41.2881 10.7603C39.3196 10.7603 37.3061 17.3235 37.6576 20.828C37.5429 21.0425 35.8808 24.1947 34.6586 24.1947C32.445 24.1947 35.5362 14.3605 36.5641 13.2784L36.7356 12.8857C36.7356 11.9694 34.0137 10.7603 33.4958 10.7603C32.4935 10.7603 31.447 13.3617 30.8505 15.2786C30.3937 16.756 29.8758 18.9917 29.702 21.1998C28.7718 22.4644 27.7864 23.5911 27 23.5911C25.071 23.5911 27.8793 18.6026 28.7359 17.7441L28.9516 17.3084C28.9516 16.7705 28.0951 16.2542 27.3888 16.0776C28.2791 14.9492 28.2412 13.5207 28.2412 13.2784C28.2412 12.1392 27.4927 10.7258 25.2383 10.7258C22.7644 10.7258 15.8579 14.2412 15.8579 21.7126C15.8579 22.773 16.2303 27.3127 19.2771 27.3127C20.7067 27.3127 22.3815 24.5815 22.6625 24.0887C22.5276 25.5401 22.7452 28.1652 24.9211 28.1652C26.7949 28.1652 28.5242 26.9745 29.9118 25.4106C30.5479 28.1439 32.1152 28.1987 32.65 28.1987C34.676 28.1987 36.6954 26.7988 38.1503 24.0164C38.4548 25.3382 39.3598 28.1987 42.4869 28.1987C43.5634 28.1987 44.604 27.559 45.5763 26.5475C46.2615 28.112 47.467 28.1652 47.9087 28.1652C49.1183 28.1652 50.8397 27.8121 52.952 25.3636C53.3603 24.8859 53.7325 24.3562 54.0856 23.797C54.1239 25.8888 56.5935 28.3199 58.0291 28.3199Z" fill="#DE0D17"/>
</svg>

<svg width="181" height="73" fill="none" xmlns="http://www.w3.org/2000/svg"><path fill-rule="evenodd" clip-rule="evenodd" d="m176.277 10.571-.148-.149V8.228h-.757l-.146-.148v-.166l.146-.146h2.004l.148.146v.166l-.148.148h-.756v2.194l-.148.15h-.195ZM178.673 8.556v1.866l-.145.15h-.197l-.148-.15V7.914l.148-.146h.229l.19.1.88 1.209.841-1.21.186-.1h.197l.146.147v2.508l-.146.15h-.192l-.146-.15V8.543l-.73 1.03h-.378l-.735-1.017ZM17.74 7.547c0-.29-.144-.59-.43-.897 4.602 0 4.413.117 6.767.117 4.845 0 6.306-.408 6.306-5.01C30.383.083 28.981 0 28.725 0c-.216 0-.52.061-.52.19 0 .105.3.27.3.584 0 1.109-3.212 2.331-12.994 2.331C7.12 3.105 0 1.855 0 10.138c0 1.951 2.121 2.385 2.65 2.385.205 0 .55-.039.55-.208 0-.232-.645-.522-.645-1.322 0-2.455 1.309-3.813 11.192-4.273-2.766 4.551-5.536 18.162-5.536 21.303 0 5.848 3.318 6.698 5.113 6.698.449 0 .673-.08.673-.24 0-.33-.937-2.738-.937-5.918 0-9.213 4.68-20.412 4.68-21.016ZM78.074 12.852c.334 0 .501.145.501.434 0 1.06-1.977 3.274-4.732 4.104.765-1.602 2.468-4.538 4.231-4.538Zm74.053 18.692c-.266 0-.224.677-.772.677-3.252 0-9.355-8.582-11.224-12.193.408-.274 7.308-5.164 7.308-6.6 0-2.23-2.134-2.703-2.719-2.703-.214 0-.764.08-.764.363 0 .298.402.358.402.842 0 1.25-4.455 4.931-6.754 6.544 1.586-5.732 3.193-5.744 3.193-6.329 0-.98-2.548-1.575-3.036-1.575-2.348 0-3.802 3.497-4.513 7.363-1.015 1.062-3.045 5.657-6.599 5.657-.516 0-2.029-.066-2.029-2.695 0-2.973 2.356-8.043 4.568-8.043.575 0 .765.254.765.67 0 .831-1.184 2.697-2.67 2.697-.269 0-.505.177-.505.806 0 .877.674 2.208 1.845 2.208 1.692 0 3.211-3.033 3.211-4.75 0-2.59-1.637-3.758-3.458-3.758-3.191 0-6.902 4.135-7.598 9.29-1.163 1.66-2.573 3.648-3.616 3.648-.571 0-.848-.391-.848-1.395 0-2.493 2.119-7.375 3.529-8.99l.172-.393c0-.94-2.844-2.124-3.345-2.124-2.627 0-5.429 3.996-7.548 8.86.527-3.77 1.984-5.818 2.435-6.343l.19-.438c0-.871-2.265-2.079-2.872-2.079-3.028 0-7.39 7.722-7.898 9.499.535-3.344 1.994-5.862 2.963-6.982l.171-.393c0-.937-2.804-2.124-3.311-2.124-1.341 0-3.411 4.959-3.885 9.747-.174.247-.362.51-.577.808-1.654 2.257-2.326 2.835-2.963 2.835-.277 0-.814-.05-.814-1.356 0-2.603 2.081-7.218 3.352-8.712l.15-.35c0-.886-2.684-2.094-3.183-2.094-1.076 0-2.651 3.218-3.6 6.83a101.64 101.64 0 0 1-4.082-.22c.78-2.41 1.912-4.053 2.405-4.625l.17-.393c0-.944-2.846-2.123-3.345-2.123-1.112 0-2.645 3.381-3.434 7.14-1.068 1.432-3.013 5.238-6.339 5.238-1.622 0-1.935-1.352-1.764-2.765 2.474 0 7.648-3.332 7.648-6.992 0-.857-.318-3.004-3.31-3.004-3.25 0-8.852 4.753-8.852 10.989 0 1.472.778 6.452 4.753 6.452 2.971 0 5.667-2.529 7.378-5.07.142 2.17 1.541 4.705 4.168 4.705.165 0 .247-.106.247-.32a16.53 16.53 0 0 1-.37-6.392c1.51.04 2.963.121 4.138.202a18.3 18.3 0 0 0-.224 2.678c0 4.267 1.992 4.575 2.828 4.575 1.2 0 2.92-.344 5.043-2.798.317-.372.61-.776.895-1.197.602 1.58 1.86 2.941 3.78 2.941l.245-.282v-.036c0-3.218 2.318-8.188 4.841-12.016l.036-.035c-.468 1.4-1.28 4.303-1.28 7.3 0 2.03 1.284 5.07 4.234 5.07.158 0 .237-.126.237-.379l-.025-.295c0-1.837.794-5.416 4.3-11.165-.129.374-1.469 4.227-1.469 7.8 0 3.785 1.408 4.782 2.916 4.782.082 0 2.531.27 5.183-2.905.277-.323.53-.68.784-1.037.546 1.972 1.76 3.872 3.942 3.872 2.886 0 5.976-2.91 7.79-5.685-.15 3.97 2.954 5.65 3.929 5.65.215 0 .44-.364.44-.541 0-.077-1.176-2.302.175-7.9 3.007 6.659 7.059 15.12 11.383 15.12 2.649 0 3.918-1.9 3.918-2.624 0-.453-.399-.64-.465-.64Z" fill="#DE0D17"/><path fill-rule="evenodd" clip-rule="evenodd" d="M171.775 12.852c.335 0 .502.145.502.434 0 1.06-1.977 3.274-4.733 4.104.766-1.602 2.468-4.538 4.231-4.538Zm3.528 4.855c-.846 0-2.848 5.78-6.947 5.78-.52 0-1.801-.071-1.801-2.167 0-.19.012-.39.038-.599 2.572 0 7.06-3.282 7.545-5.99.069-.354.104-.688.104-1.002 0-.857-.32-3.004-3.312-3.004-2.637 0-7.707 3.505-8.689 9.252-1.144 1.652-2.531 3.613-3.584 3.613-.561 0-.846-.372-.846-1.388 0-2.622 2.155-7.405 3.491-8.933l.171-.39c0-.923-2.785-2.118-3.309-2.118-1.157 0-2.846 3.805-3.666 7.48-.557 1.353-1.973 4.11-3.422 4.11-.537 0-.901-.344-.901-1.428 0-2.344 2.058-6.38 3.124-7.645l.166-.427c0-.89-2.167-2.09-2.776-2.09-1.618 0-5.007 7.546-5.007 12.052 0 .658.162 4.61 3.098 4.61 1.433 0 3.246-1.423 5.222-4.646.058 3.995 1.42 5.387 2.576 5.387.083 0 2.483.283 5.147-2.929.269-.314.514-.662.759-1.009.552 1.868 1.781 3.94 4.348 3.94 5.015 0 9.268-7.205 9.268-9.517 0-.67-.283-.942-.797-.942ZM92.305 53.824c-.031 0-1.089.15-1.089-1.77 0-2.46 2.221-7.23 5.532-7.23.446 0 .67.104.67.317 0 .807-2.15 2.476-2.15 3.12 0 .275.078.444.459.673-1.091 2.44-1.827 4.89-3.422 4.89Zm-6.028 15.123c-.472 0-.977-.185-1.518-.555l-.224-.476c0-.837 1.892-2.036 5.654-3.103-.36.797-1.751 4.134-3.912 4.134ZM80 47.977a.69.69 0 0 0 .459.675c-1.096 2.45-1.79 4.712-3.28 4.712-.163 0-1.056.068-1.056-1.667 0-2.063 1.923-7.016 5.287-7.016.247 0 .618.011.618.36 0 .733-2.028 2.365-2.028 2.937Zm19.325 11.519c-.776 0-1.622.035-2.54.105l3.802-11.062c0-.589-1.04-1.078-1.615-1.235.85-1.167.882-2.387.882-2.872 0-1.2-.698-2.693-3.105-2.693-2.222 0-7.8 2.662-9.35 8.36-1.24 1.726-2.975 4.506-4.196 4.506-2.368 0 1.95-6.15 1.95-6.283 0-.536-.863-1.058-1.563-1.23.888-1.127.855-2.56.855-2.802 0-1.309-.93-2.55-3.005-2.55-1.202 0-5.604 1.243-8.235 6.006-.757 1.37-1.135 3.014-1.144 4.926-.748-1.525-2.296-2.178-3.085-2.178-2.705 0-.744.823-.75 4.293-.009 3.76-3.678 6.647-6.632 6.647-1.74 0-3.536-1.155-3.536-5.545 0-7.125 5.387-19.835 9.707-19.835 1.125 0 1.977.487 1.977 1.826 0 2.531-1.709 3.42.975 3.42 2.664 0 2.987-1.205 2.987-2.827 0-2.079-1.543-4.935-5.764-4.935-5.532 0-14.458 7.32-14.458 20.772 0 8.845 7.412 9.71 8.886 9.71 6.634 0 9.666-5.328 10.07-8.68.42 1.48 1.285 2.986 3.043 2.986 1.429 0 3.1-2.729 3.385-3.226-.137 1.454.08 4.076 2.257 4.076 2.32 0 4.508-1.9 6.047-4.089.408 2.106 1.51 3.913 3.373 3.913.996 0 2.091-1.35 2.962-2.444-.361.759-.835 1.862-1.552 3.898-1.192.312-8.174 2.11-8.674 7.726-.029.146-.07.39-.07.71.14 2.365 1.828 4.11 4.583 4.11 3.504 0 5.25-3.97 7.371-9.25a27.789 27.789 0 0 1 3.925-.312c3.906 0 4.896 1.124 5.102 1.339.261.27.472.4.624.4.079 0 .301-.058.301-.526 0-1.326-1.883-5.155-5.79-5.155Z" fill="#DE0D17"/><path fill-rule="evenodd" clip-rule="evenodd" d="M123.44 48.956c-.848 0-3.633 5.847-5.43 5.847-1.108 0 2.573-6.497 2.573-9.475 0-1.913-1.448-3.324-2.504-3.324-.727 0-3.77 5.129-5.658 6.695.121-1.048.309-3.075-1.764-3.075-2.237 0-3.459 1.93-3.459 3.821 0 1.23.856 2.315 2.231 2.546-1.117 1.356-2.601 2.99-4.238 2.99-2.248 0 .542-7.72 2.538-10.065l.15-.353c0-.886-2.683-2.096-3.183-2.096-1.628 0-4.413 7.367-4.413 12.332 0 4.262 1.988 4.578 2.826 4.578 4.241 0 6.944-4.508 7.049-4.508.684-1.01 1.178-1.91 1.607-3.21 1.641-1.155 5.183-6.998 5.215-6.998l.024.047c0 .778-3.718 8.975-3.718 11.285 0 1.497.795 3.384 2.749 3.384 3.967-.094 8.086-6.266 8.086-9.462 0-.954-.525-.959-.681-.959ZM23.799 16.964c0 .413.268.598.458.672-1.106 2.474-1.793 4.716-3.28 4.716-.164 0-1.055.066-1.055-1.669 0-2.1 1.95-7.015 5.287-7.015.25 0 .615.013.615.361 0 .73-2.026 2.366-2.026 2.935Zm34.23 11.356c.216 0 .44-.365.44-.54 0-.08-1.201-2.332.227-8.11.386.973.573 1.432 1.404 3.42 1.951 4.773 3.44 6.095 4.723 6.095 2.012 0 3.794-3.368 3.794-4.112 0-.281-.127-.39-.336-.39-.406 0-.544.675-1.41.675-1.663 0-3.244-3.053-4.511-5.762 1.952-1.418 6.433-4.82 6.433-5.975 0-2.232-2.134-2.704-2.72-2.704-.213 0-.763.077-.763.364 0 .296.402.357.402.841 0 1.25-4.456 4.931-6.754 6.544 1.586-5.734 3.193-5.744 3.193-6.329 0-.98-2.548-1.577-3.037-1.577-2.482 0-3.969 3.915-4.629 8.04-1.2 1.512-3.18 4.97-4.495 4.97-1.176 0-.886-2.18-.315-4.064 1.489-3.454 2.404-6.718 2.404-7.031 0-1-1.941-1.915-3.561-1.915-1.281 0-3.508 12.553-6.143 12.553-2.533 0 .277-8.002 2.051-10.035l.174-.392c0-.912-2.699-2.126-3.312-2.126-1.968 0-3.982 6.563-3.63 10.068-.115.215-1.777 3.367-3 3.367-2.213 0 .878-9.835 1.906-10.917l.172-.392c0-.917-2.722-2.126-3.24-2.126-1.003 0-2.049 2.602-2.646 4.519-.456 1.477-.974 3.713-1.148 5.92-.93 1.265-1.916 2.392-2.702 2.392-1.929 0 .88-4.988 1.736-5.847l.216-.436c0-.538-.857-1.054-1.563-1.23.89-1.129.852-2.557.852-2.8 0-1.139-.748-2.552-3.003-2.552-2.474 0-9.38 3.515-9.38 10.987 0 1.06.372 5.6 3.42 5.6 1.429 0 3.104-2.732 3.385-3.224-.135 1.451.082 4.076 2.258 4.076 1.874 0 3.603-1.19 4.99-2.754.637 2.733 2.204 2.788 2.739 2.788 2.026 0 4.045-1.4 5.5-4.183.305 1.322 1.21 4.183 4.337 4.183 1.076 0 2.117-.64 3.09-1.652.684 1.565 1.89 1.618 2.332 1.618 1.21 0 2.93-.353 5.043-2.801a13.49 13.49 0 0 0 1.134-1.567c.038 2.092 2.508 4.523 3.943 4.523Z" fill="#DE0D17"/></svg>
